app/dist/common/images/hometrust-bancshares.svg

<svg height="18" viewBox="0 0 18 18" width="18" xmlns="http://www.w3.org/2000/svg"><path d="m0 0h18v18h-18z" fill="#002d63"/><path d="m4 8.5v2l2.9-2.12 1.47 1 .63-.48v-1l-2.1-1.66z" fill="#0093d0"/><path d="m14 8.6v-1.97l-2.56-1.63-2.44 1.94v1.96l2.44-1.74z" fill="#13b5ea"/><path d="m6 10.94v2.06l3.43-2.2 2.57 1.54v-2.06l-2.57-1.68z" fill="#fff"/></svg>

<!-- by TradingView --><svg width="18" height="18" viewBox="0 0 18 18" xmlns="http://www.w3.org/2000/svg"><path fill="#002D63" d="M0 0h18v18H0z"/><path d="M4 8.5v2l2.9-2.12 1.47 1L9 8.9v-1L6.9 6.24 4 8.5Z" fill="#0093D0"/><path d="M14 8.6V6.63L11.44 5 9 6.94V8.9l2.44-1.74L14 8.6Z" fill="#13B5EA"/><path d="M6 10.94V13l3.43-2.2L12 12.34v-2.06L9.43 8.6 6 10.94Z" fill="#fff"/></svg>
